X:2139
T:Brian Quinn's
M:2/2
L:1/8
C:Ed Reavy
R:Reel
N:Brian is now a very successful physician 
N:in Flemington,New Jersey. He is also a 
N:brilliant piano accordionist and a great lover
N:of traditional music. He is the second of
N: Lou's five boys (two girls), 
N:and they all play music instruments.
Z:Joe Reavy
K:G
GF|DGGB dBGB|A=FFE FGAF|DGGB dBGE|=FGAF DGG^F|
DGGB dBGB|A=FFE FGAF|GABc dgbg|1 fdcA (3Bcd GF:|
2 fdcA BGGA||(3Bcd gd Bdgd|BABd cA=FA|(3Bcd gd Bdga|
bgfa gfga|(3bag (3agf gfdc|(3Bcd =fd cA=FD|GABc (3dcB (3cBA|
1BdcA BGGA:|2 BdcA BGGF||
